static/logos/zeroheight-wordmark-color.svg

<svg width="100" height="18" viewBox="0 0 100 18" fill="none" xmlns="http://www.w3.org/2000/svg">
<g clip-path="url(#clip0_1_294)">
<path fill-rule="evenodd" clip-rule="evenodd" d="M20.2899 13.0409L26.3 5.79486H20.3876V5.15982H27.2146V5.74595L21.2212 12.992H27.1825V13.627H20.2891V13.0409H20.2899ZM32.6533 13.7898C32.0548 13.7898 31.5001 13.673 30.9877 13.4394C30.4838 13.2119 30.031 12.8852 29.6562 12.4788C28.8767 11.6282 28.4477 10.5143 28.4555 9.36057C28.4555 8.76349 28.5621 8.20218 28.7745 7.67517C28.9869 7.14887 29.2782 6.68756 29.6483 6.29121C30.0194 5.89422 30.4664 5.57576 30.9628 5.35471C31.4795 5.1246 32.0396 5.00811 32.6051 5.01311C33.2037 5.01311 33.7584 5.12989 34.2701 5.36347C34.7818 5.59705 35.2234 5.91092 35.5934 6.30727C35.9675 6.70957 36.2613 7.17953 36.4591 7.69196C36.6657 8.21751 36.7694 8.77444 36.7694 9.36057V9.56495C36.773 9.61685 36.7673 9.66904 36.7526 9.71897H29.3052C29.3652 10.6363 29.7503 11.5023 30.3913 12.1613C30.6905 12.4657 31.0366 12.7044 31.4286 12.8781C31.8247 13.0527 32.2533 13.1414 32.6861 13.1387C32.9791 13.1389 33.2705 13.0979 33.5519 13.0168C33.8285 12.9379 34.0944 12.8256 34.3438 12.6825C34.5853 12.5442 34.8053 12.3716 34.9972 12.1701C35.1877 11.9686 35.3372 11.7489 35.446 11.5102L36.165 11.7058C36.0453 12.0095 35.868 12.2898 35.6344 12.5445C35.4001 12.8 35.1277 13.019 34.8175 13.2036C34.5073 13.3883 34.1672 13.5321 33.7971 13.635C33.4247 13.7385 33.0399 13.7906 32.6533 13.7898ZM35.9855 9.06714C35.9592 8.59459 35.8456 8.13108 35.6505 7.69999C35.471 7.30327 35.2221 6.94186 34.9154 6.63281C34.6177 6.33548 34.2659 6.09788 33.8788 5.93281C33.4814 5.76335 33.0533 5.67738 32.6212 5.68026C32.1891 5.67738 31.761 5.76335 31.3635 5.93281C30.568 6.2714 29.9374 6.9089 29.6074 7.70802C29.4245 8.13984 29.3169 8.59977 29.2891 9.06787H35.9855V9.06714ZM42.584 5.89194C41.8213 5.91383 41.1541 6.13938 40.5826 6.56785C40.011 6.99705 39.611 7.58612 39.3825 8.33429V13.627H38.5658V5.16055H39.3496V7.24449C39.6438 6.64741 40.0329 6.16128 40.5176 5.78683C41.0023 5.41237 41.522 5.19851 42.0775 5.14449C42.1862 5.13281 42.284 5.1277 42.3708 5.1277H42.5832V5.89267L42.584 5.89194ZM47.6956 13.7898C47.0971 13.7898 46.5438 13.673 46.038 13.4394C45.5406 13.2128 45.0934 12.8893 44.7226 12.4876C44.3484 12.0794 44.0547 11.6041 43.857 11.0868C43.6496 10.552 43.5444 9.98305 43.5467 9.40948C43.5437 8.82977 43.6519 8.25488 43.8657 7.71605C44.0774 7.18391 44.3694 6.71748 44.7395 6.31529C45.1097 5.91353 45.5564 5.58968 46.0533 5.36274C46.5686 5.12724 47.1292 5.00764 47.6956 5.01237C48.2832 5.01237 48.827 5.12916 49.3285 5.36274C49.8292 5.59632 50.268 5.91383 50.6432 6.31529C51.4207 7.1574 51.8499 8.2632 51.8438 9.40948C51.8438 9.99561 51.7373 10.5555 51.5256 11.0868C51.3227 11.6036 51.0263 12.0784 50.6512 12.4876C50.281 12.8893 49.8342 13.2132 49.3373 13.4401C48.8307 13.6737 48.2833 13.7905 47.695 13.7905L47.6956 13.7898ZM44.3636 9.44232C44.3636 9.94159 44.4511 10.4109 44.6248 10.8511C44.7993 11.2905 45.0358 11.673 45.335 11.9985C45.6343 12.3241 45.9861 12.5825 46.3891 12.7723C46.792 12.962 47.2212 13.0569 47.6788 13.0569C48.1365 13.0569 48.5665 12.962 48.9694 12.7723C49.3722 12.5822 49.733 12.3137 50.0307 11.9825C50.671 11.2732 51.021 10.3489 51.011 9.39342C51.0143 8.91145 50.9256 8.43335 50.7496 7.98466C50.5836 7.55809 50.3398 7.16606 50.0307 6.82843C49.7319 6.50184 49.3747 6.23398 48.9774 6.03865C48.5786 5.8431 48.1398 5.74289 47.6956 5.74595C47.238 5.74595 46.808 5.84303 46.4051 6.03865C46.0047 6.23225 45.6467 6.50343 45.3519 6.83646C45.0526 7.17296 44.8125 7.56641 44.6329 8.01751C44.4528 8.47079 44.3613 8.95451 44.3636 9.44232ZM60.7445 13.627H59.9278V8.9051C59.9278 6.81018 59.2256 5.76274 57.8213 5.76274C57.4731 5.76274 57.1329 5.82843 56.8007 5.95836C56.4686 6.08829 56.1584 6.27223 55.8694 6.51164C55.581 6.75033 55.3277 7.02989 55.1102 7.35035C54.8941 7.66743 54.7288 8.01641 54.6204 8.38466V13.6277H53.8029V1.74011H54.6204V7.17807C54.9536 6.53289 55.4524 5.98797 56.0658 5.59924C56.6563 5.21575 57.3456 5.01213 58.0496 5.01311C58.5183 5.01311 58.9213 5.09997 59.2585 5.27369C59.5957 5.44741 59.8767 5.69705 60.0993 6.02259C60.3226 6.34814 60.4862 6.74157 60.5899 7.20289C60.6928 7.66422 60.7445 8.1832 60.7445 8.75765V13.627ZM66.8204 13.7898C66.2219 13.7898 65.6657 13.673 65.154 13.4394C64.6505 13.2117 64.198 12.8851 63.8234 12.4788C63.0438 11.6282 62.6149 10.5143 62.6226 9.36057C62.6226 8.76349 62.7293 8.20218 62.9417 7.67517C63.1534 7.14887 63.4453 6.68756 63.8153 6.29121C64.1863 5.8943 64.6331 5.57585 65.1293 5.35471C65.6459 5.1246 66.206 5.00811 66.7716 5.01311C67.3702 5.01311 67.9248 5.12989 68.4372 5.36347C68.9482 5.59705 69.3898 5.91092 69.7599 6.30727C70.1339 6.70957 70.4277 7.17953 70.6256 7.69196C70.8321 8.21751 70.9358 8.77444 70.9358 9.36057V9.56495C70.9396 9.61685 70.9342 9.66897 70.9197 9.71897H63.4715C63.5316 10.6363 63.9167 11.5023 64.5577 12.1613C64.8569 12.4657 65.2029 12.7044 65.5942 12.8781C65.9904 13.0527 66.419 13.1414 66.8519 13.1387C67.1448 13.1389 67.4361 13.0979 67.7176 13.0168C67.9942 12.9379 68.2601 12.8256 68.5095 12.6825C68.751 12.5442 68.971 12.3716 69.1628 12.1701C69.3533 11.9686 69.5037 11.7489 69.6124 11.5102L70.3307 11.7058C70.211 12.0095 70.0344 12.2898 69.8001 12.5445C69.5665 12.8 69.2934 13.019 68.9832 13.2036C68.673 13.3883 68.3337 13.5321 67.9629 13.635C67.5906 13.7384 67.2061 13.7905 66.8197 13.7898H66.8204ZM70.1518 9.06714C70.1256 8.59459 70.0121 8.13108 69.8168 7.69999C69.6376 7.30335 69.3889 6.94192 69.0825 6.63281C68.7846 6.33541 68.4326 6.0978 68.0453 5.93281C67.6478 5.76335 67.2197 5.67738 66.7876 5.68026C66.3556 5.67738 65.9275 5.76335 65.5299 5.93281C64.7348 6.27156 64.1043 6.90904 63.7745 7.70802C63.5914 8.13977 63.4835 8.5997 63.4556 9.06787H70.1518V9.06714ZM72.7321 13.627V5.16055H73.5496V13.6277H72.7321V13.627ZM72.7321 3.23792V1.74011H73.5496V3.23792H72.7321ZM79.5423 13.7577C78.9825 13.7638 78.4292 13.6383 77.9263 13.3912C77.4438 13.1526 77.0139 12.8204 76.6606 12.4139C76.3037 12.002 76.0219 11.5309 75.827 11.0219C75.627 10.5079 75.5241 9.96101 75.5248 9.40948C75.5248 8.83429 75.6205 8.28028 75.811 7.74889C75.992 7.23367 76.2657 6.75613 76.6197 6.34011C76.9679 5.93281 77.384 5.61019 77.8686 5.37077C78.3533 5.13208 78.8898 5.01311 79.4774 5.01311C80.2183 5.01311 80.8628 5.20581 81.4132 5.59121C81.9591 5.97309 82.4329 6.45031 82.8095 6.99997V5.15836H83.5606V13.789C83.5606 14.365 83.4511 14.8693 83.2336 15.3036C83.0263 15.725 82.7278 16.095 82.3599 16.3868C81.9949 16.6744 81.5708 16.8912 81.0861 17.0379C80.6015 17.1839 80.0927 17.2577 79.5591 17.2577C79.1146 17.2624 78.6708 17.2158 78.2365 17.119C77.8745 17.038 77.5248 16.9066 77.1993 16.7285C76.9037 16.5628 76.6336 16.3542 76.3993 16.1095C76.165 15.8651 75.9591 15.5947 75.7861 15.3036L76.3416 14.9292C76.6796 15.5044 77.1372 15.9255 77.7139 16.1912C78.2905 16.4569 78.9058 16.5898 79.5591 16.5898C79.9949 16.5898 80.4059 16.5306 80.7927 16.4109C81.1788 16.2912 81.5161 16.1153 81.8051 15.8817C82.0934 15.6482 82.3219 15.3577 82.4912 15.0102C82.6591 14.6635 82.7438 14.2562 82.7438 13.789V11.9343C82.3986 12.485 81.9212 12.9411 81.3555 13.2613C80.8058 13.5847 80.1803 13.756 79.5431 13.7577H79.5423ZM79.7394 13.0569C80.1 13.0567 80.457 12.9879 80.792 12.854C81.1351 12.7182 81.4453 12.5416 81.7234 12.3241C82.0007 12.1073 82.2292 11.8628 82.4095 11.592C82.5891 11.3204 82.7007 11.0489 82.7438 10.7774V7.99269C82.484 7.34583 82.0453 6.78661 81.4781 6.38099C81.2015 6.186 80.8993 6.0298 80.5803 5.91675C80.2686 5.80444 79.9394 5.74666 79.608 5.74595C79.0971 5.74595 78.6394 5.85398 78.2358 6.0715C77.8416 6.28148 77.4942 6.56959 77.2153 6.91821C76.935 7.27088 76.7197 7.6705 76.5788 8.09853C76.4336 8.52597 76.3591 8.97415 76.3584 9.42554C76.3584 9.91459 76.4453 10.3759 76.6197 10.8102C76.7934 11.2445 77.0329 11.6299 77.338 11.9664C77.6431 12.3022 78.0022 12.5686 78.4161 12.7642C78.8292 12.9594 79.2818 13.0594 79.7387 13.0569H79.7394ZM93.0497 13.627H92.2329V8.9051C92.2329 6.81018 91.5307 5.76274 90.1263 5.76274C89.7774 5.76274 89.4372 5.82843 89.1051 5.95836C88.773 6.08829 88.4628 6.27223 88.1745 6.51164C87.8861 6.75033 87.6329 7.02989 87.4153 7.35035C87.1993 7.66743 87.0336 8.01641 86.9248 8.38466V13.6277H86.108V1.74011H86.9256V7.17807C87.2584 6.53289 87.7577 5.98797 88.3708 5.59924C88.9613 5.21575 89.6504 5.01213 90.3548 5.01311C90.8226 5.01311 91.2256 5.09997 91.5635 5.27369C91.9007 5.44741 92.181 5.69705 92.4044 6.02259C92.6278 6.34814 92.7912 6.74157 92.8942 7.20289C92.9978 7.66422 93.0497 8.1832 93.0497 8.75765V13.627ZM99.3051 13.2197C99.2613 13.2416 99.1876 13.2825 99.0839 13.3423C98.981 13.4022 98.8504 13.4591 98.692 13.5131C98.5183 13.5717 98.3409 13.6204 98.1613 13.6591C97.9657 13.7029 97.7526 13.7248 97.5248 13.7248C97.2956 13.7248 97.081 13.692 96.8796 13.627C96.6847 13.5657 96.5044 13.4662 96.3489 13.3343C96.1964 13.2044 96.0737 13.0433 95.9891 12.862C95.8978 12.6571 95.8533 12.4344 95.8584 12.2102V5.82697H94.6664V5.15909H95.8584V2.26128H96.6752V5.15909H98.6511V5.82697H96.6752V12.0153C96.6752 12.3292 96.7847 12.5657 97.0022 12.7233C97.2197 12.881 97.4642 12.9598 97.7365 12.9598C98.0745 12.9598 98.3657 12.9022 98.6102 12.7883C98.8555 12.6744 99.0051 12.6014 99.0599 12.5693L99.3044 13.2197H99.3051Z" fill="black"/>
<mask id="mask0_1_294" style="mask-type:alpha" maskUnits="userSpaceOnUse" x="0" y="0" width="14" height="17">
<path d="M1.18321 0L2.36715 2.52263H0L1.18321 0ZM0 2.92117H2.36715V14.208H0V2.92117ZM0 14.6066H2.36715V15.9788H0V14.6066ZM4.21168 2.51606L5.85109 0.878102L13.3869 8.41971L5.81314 16.1752L4.17664 14.6204L10.1255 8.43066L4.21168 2.51679V2.51606Z" fill="white"/>
</mask>
<g mask="url(#mask0_1_294)">
<path d="M1.18321 0L2.36715 2.52263H0L1.18321 0ZM0 2.92117H2.36715V14.208H0V2.92117ZM0 14.6066H2.36715V15.9788H0V14.6066ZM4.21168 2.51606L5.85109 0.878102L13.3869 8.41971L5.81314 16.1752L4.17664 14.6204L10.1255 8.43066L4.21168 2.51679V2.51606Z" fill="white"/>
<path fill-rule="evenodd" clip-rule="evenodd" d="M0 0H13.4095V16.1759H0V0Z" fill="url(#paint0_linear_1_294)"/>
</g>
</g>
<defs>
<linearGradient id="paint0_linear_1_294" x1="2.09698" y1="16.1759" x2="13.7985" y2="2.06097" gradientUnits="userSpaceOnUse">
<stop stop-color="#EC407A"/>
<stop offset="1" stop-color="#FFA000"/>
</linearGradient>
<clipPath id="clip0_1_294">
<rect width="100" height="17.5182" fill="white"/>
</clipPath>
</defs>
</svg>

<svg xmlns="http://www.w3.org/2000/svg" width="355.556" height="64" fill="none" viewBox="0 0 100 18"><g clip-path="url(#a)"><path fill="#000" fill-rule="evenodd" d="m20.29 13.04 6.01-7.245h-5.912V5.16h6.827v.586l-5.994 7.246h5.962v.635h-6.894v-.586Zm12.363.75a3.966 3.966 0 0 1-1.665-.35 4.114 4.114 0 0 1-1.332-.961 4.57 4.57 0 0 1-1.2-3.118c0-.598.106-1.159.319-1.686.212-.526.503-.987.873-1.384a4.06 4.06 0 0 1 1.315-.936 3.951 3.951 0 0 1 1.642-.342 3.96 3.96 0 0 1 1.665.35 4.14 4.14 0 0 1 1.323.944c.374.403.668.873.866 1.385.207.526.31 1.082.31 1.669v.204a.438.438 0 0 1-.016.154h-7.448c.06.917.445 1.783 1.086 2.442.3.305.646.543 1.038.717a3.07 3.07 0 0 0 1.257.26c.293 0 .584-.04.866-.121.276-.08.542-.191.792-.335.241-.138.461-.31.653-.512.19-.201.34-.421.449-.66l.719.196c-.12.303-.297.584-.53.838a3.59 3.59 0 0 1-.817.66c-.31.184-.65.328-1.02.431a4.239 4.239 0 0 1-1.145.155Zm3.333-4.723A3.832 3.832 0 0 0 35.65 7.7a3.652 3.652 0 0 0-.736-1.067 3.297 3.297 0 0 0-1.036-.7 3.153 3.153 0 0 0-1.258-.253 3.154 3.154 0 0 0-1.258.253 3.297 3.297 0 0 0-1.756 1.775c-.183.432-.29.892-.318 1.36h6.697Zm6.598-3.175c-.763.022-1.43.247-2.001.676-.572.43-.972 1.018-1.2 1.766v5.293h-.817V5.161h.784v2.083a4.092 4.092 0 0 1 1.168-1.457c.484-.375 1.004-.588 1.56-.643.108-.011.206-.016.293-.016h.212v.765l.001-.001Zm5.112 7.898a3.908 3.908 0 0 1-1.658-.35 4.107 4.107 0 0 1-1.315-.952 4.395 4.395 0 0 1-.866-1.401 4.588 4.588 0 0 1-.31-1.678 4.528 4.528 0 0 1 .319-1.693 4.51 4.51 0 0 1 .873-1.4c.37-.402.817-.726 1.314-.953a3.873 3.873 0 0 1 1.643-.35c.587 0 1.131.116 1.633.35.5.233.939.55 1.314.952a4.526 4.526 0 0 1 1.2 3.094c0 .587-.106 1.146-.317 1.678-.203.517-.5.991-.875 1.4-.37.402-.817.726-1.314.953a3.874 3.874 0 0 1-1.642.35Zm-3.332-4.348c0 .5.087.969.26 1.41.175.438.412.821.711 1.146.3.326.651.585 1.054.774.403.19.832.285 1.29.285.457 0 .887-.095 1.29-.285.403-.19.764-.458 1.062-.79.64-.709.99-1.633.98-2.589a3.787 3.787 0 0 0-.98-2.565 3.551 3.551 0 0 0-1.054-.79 2.867 2.867 0 0 0-1.281-.292c-.458 0-.888.097-1.29.293a3.36 3.36 0 0 0-1.054.797 3.967 3.967 0 0 0-.988 2.606Zm16.38 4.185h-.816V8.905c0-2.095-.702-3.142-2.107-3.142a2.78 2.78 0 0 0-1.02.195 3.39 3.39 0 0 0-.932.554 3.99 3.99 0 0 0-.759.838 3.684 3.684 0 0 0-.49 1.035v5.243h-.817V1.74h.817v5.438A4.092 4.092 0 0 1 56.066 5.6a3.633 3.633 0 0 1 1.984-.586c.468 0 .871.087 1.209.26.337.174.618.424.84.75.224.325.387.719.49 1.18.104.461.156.98.156 1.555v4.869Zm6.076.163a3.967 3.967 0 0 1-1.666-.35 4.117 4.117 0 0 1-1.33-.961 4.57 4.57 0 0 1-1.201-3.118c0-.598.106-1.159.319-1.686a4.43 4.43 0 0 1 .873-1.384 4.062 4.062 0 0 1 1.314-.936 3.95 3.95 0 0 1 1.643-.342c.598 0 1.153.117 1.665.35.511.234.953.548 1.323.944.374.403.668.873.866 1.385.206.526.31 1.082.31 1.669v.204a.438.438 0 0 1-.016.154H63.47c.06.917.446 1.783 1.087 2.442.299.305.645.543 1.036.717.396.175.825.263 1.258.26.293 0 .584-.04.866-.121.276-.08.542-.191.791-.335.242-.138.462-.31.654-.512.19-.201.34-.421.45-.66l.718.196a2.69 2.69 0 0 1-.53.838 3.575 3.575 0 0 1-.818.66 4.243 4.243 0 0 1-2.163.586Zm3.332-4.723a3.826 3.826 0 0 0-.335-1.367 3.652 3.652 0 0 0-.734-1.067 3.297 3.297 0 0 0-1.038-.7 3.154 3.154 0 0 0-1.257-.253 3.154 3.154 0 0 0-1.258.253 3.297 3.297 0 0 0-1.755 1.775 4.11 4.11 0 0 0-.32 1.36h6.697Zm2.58 4.56V5.161h.818v8.467h-.818v-.001Zm0-10.39V1.74h.818v1.498h-.818Zm6.81 10.52a3.575 3.575 0 0 1-1.616-.366 4.063 4.063 0 0 1-1.265-.977 4.682 4.682 0 0 1-.834-1.392 4.432 4.432 0 0 1-.302-1.613c0-.575.096-1.129.286-1.66.181-.515.455-.993.809-1.409.348-.407.764-.73 1.249-.97a3.592 3.592 0 0 1 1.608-.357c.741 0 1.386.193 1.936.578.546.382 1.02.86 1.397 1.409V5.158h.75v8.631c0 .576-.109 1.08-.326 1.515a3.167 3.167 0 0 1-.874 1.083c-.365.287-.79.504-1.274.65-.484.147-.993.22-1.527.22a5.798 5.798 0 0 1-1.322-.138 3.966 3.966 0 0 1-1.038-.39 3.43 3.43 0 0 1-.8-.62 4.45 4.45 0 0 1-.613-.805l.556-.375c.338.575.795.996 1.372 1.262a4.357 4.357 0 0 0 1.845.399c.436 0 .847-.06 1.234-.18.386-.119.723-.295 1.012-.528a2.53 2.53 0 0 0 .686-.872c.168-.346.253-.754.253-1.221v-1.855a3.914 3.914 0 0 1-1.388 1.327 3.593 3.593 0 0 1-1.813.497Zm.197-.7c.361 0 .718-.07 1.053-.203a3.73 3.73 0 0 0 .931-.53c.278-.217.506-.461.686-.732.18-.272.292-.543.335-.815V7.993a3.656 3.656 0 0 0-1.266-1.612 3.708 3.708 0 0 0-.898-.464 2.888 2.888 0 0 0-.972-.171c-.51 0-.969.108-1.372.325-.394.21-.742.499-1.02.847-.281.353-.496.752-.637 1.18-.145.428-.22.876-.22 1.328 0 .489.086.95.26 1.384.174.434.414.82.719 1.156.305.336.664.603 1.078.798.413.195.866.295 1.323.293Zm13.31.57h-.816V8.905c0-2.095-.702-3.142-2.107-3.142-.349 0-.689.065-1.02.195-.333.13-.643.314-.931.554a3.993 3.993 0 0 0-.76.838 3.7 3.7 0 0 0-.49 1.035v5.243h-.817V1.74h.818v5.438A4.09 4.09 0 0 1 88.37 5.6a3.633 3.633 0 0 1 1.984-.586c.468 0 .87.087 1.209.26.337.174.617.424.84.75.224.325.387.719.49 1.18.104.461.156.98.156 1.555v4.869Zm6.256-.407a4.958 4.958 0 0 0-.221.122c-.103.06-.234.117-.392.171a4.87 4.87 0 0 1-.53.146 2.917 2.917 0 0 1-.637.066c-.23 0-.444-.033-.645-.098a1.53 1.53 0 0 1-.531-.293 1.396 1.396 0 0 1-.36-.472 1.517 1.517 0 0 1-.13-.652V5.827h-1.193v-.668h1.192V2.261h.817V5.16h1.976v.668h-1.976v6.188c0 .314.11.55.327.708.218.158.462.237.735.237.338 0 .629-.058.873-.172.246-.114.395-.187.45-.219l.244.65h.001Z" clip-rule="evenodd"/><mask id="b" width="14" height="17" x="0" y="0" maskUnits="userSpaceOnUse" style="mask-type:alpha"><path fill="#fff" d="m1.183 0 1.184 2.523H0L1.183 0ZM0 2.921h2.367v11.287H0V2.921Zm0 11.686h2.367v1.372H0v-1.372Zm4.212-12.09L5.852.877l7.535 7.542-7.574 7.755-1.636-1.555 5.949-6.19-5.914-5.913Z"/></mask><g mask="url(#b)"><path fill="#fff" d="m1.183 0 1.184 2.523H0L1.183 0ZM0 2.921h2.367v11.287H0V2.921Zm0 11.686h2.367v1.372H0v-1.372Zm4.212-12.09L5.852.877l7.535 7.542-7.574 7.755-1.636-1.555 5.949-6.19-5.914-5.913Z"/><path fill="url(#c)" fill-rule="evenodd" d="M0 0h13.41v16.176H0V0Z" clip-rule="evenodd"/></g></g><defs><linearGradient id="c" x1="2.097" x2="13.799" y1="16.176" y2="2.061" gradientUnits="userSpaceOnUse"><stop stop-color="#EC407A"/><stop offset="1" stop-color="#FFA000"/></linearGradient><clipPath id="a"><path fill="#fff" d="M0 0h100v17.518H0z"/></clipPath></defs></svg>
